Numix/16/status/indicator-keyboard-Fi-5.svg

<?xml version="1.0" encoding="UTF-8" standalone="no"?>
<svg
   xmlns:dc="http://purl.org/dc/elements/1.1/"
   xmlns:cc="http://creativecommons.org/ns#"
   xmlns:rdf="http://www.w3.org/1999/02/22-rdf-syntax-ns#"
   xmlns:svg="http://www.w3.org/2000/svg"
   xmlns="http://www.w3.org/2000/svg"
   xmlns:sodipodi="http://sodipodi.sourceforge.net/DTD/sodipodi-0.dtd"
   xmlns:inkscape="http://www.inkscape.org/namespaces/inkscape"
   viewBox="0 0 16 16"
   id="svg2"
   version="1.1"
   inkscape:version="0.91 r13725"
   sodipodi:docname="indicator-keyboard-Fi-5.svg">
  <metadata
     id="metadata14">
    <rdf:RDF>
      <cc:Work
         rdf:about="">
        <dc:format>image/svg+xml</dc:format>
        <dc:type
           rdf:resource="http://purl.org/dc/dcmitype/StillImage" />
      </cc:Work>
    </rdf:RDF>
  </metadata>
  <defs
     id="defs12" />
  <sodipodi:namedview
     pagecolor="#ffffff"
     bordercolor="#666666"
     borderopacity="1"
     objecttolerance="10"
     gridtolerance="10"
     guidetolerance="10"
     inkscape:pageopacity="0"
     inkscape:pageshadow="2"
     inkscape:window-width="640"
     inkscape:window-height="480"
     id="namedview10"
     showgrid="false"
     inkscape:zoom="14.75"
     inkscape:cx="8"
     inkscape:cy="8"
     inkscape:window-x="65"
     inkscape:window-y="24"
     inkscape:window-maximized="0"
     inkscape:current-layer="svg2" />
  <path
     style="fill:#ececec;fill-opacity:1"
     d="M 1.5996094 0 C 0.71320937 2.9605947e-16 0 0.71320937 0 1.5996094 L 0 14.400391 C 2.9605947e-16 15.286791 0.71320937 16 1.5996094 16 L 14.400391 16 C 15.286791 16 16 15.286791 16 14.400391 L 16 1.5996094 C 16 0.71320937 15.286791 0 14.400391 0 L 1.5996094 0 z M 8.5195312 4.5898438 C 8.6395312 4.5898438 8.7402188 4.6308438 8.8242188 4.7148438 C 8.9082188 4.7928438 8.9511719 4.9010625 8.9511719 5.0390625 C 8.9511719 5.1770625 8.9082188 5.2870937 8.8242188 5.3710938 C 8.7402188 5.4490937 8.6395312 5.4882813 8.5195312 5.4882812 C 8.3995313 5.4882812 8.2968906 5.4490937 8.2128906 5.3710938 C 8.1288906 5.2870937 8.0859375 5.1770625 8.0859375 5.0390625 C 8.0859375 4.9010625 8.1288906 4.7928438 8.2128906 4.7148438 C 8.2968906 4.6308438 8.3995313 4.5898437 8.5195312 4.5898438 z M 3.5917969 4.859375 L 7.1464844 4.859375 L 7.1464844 5.390625 L 4.203125 5.390625 L 4.203125 7.5859375 L 6.8125 7.5859375 L 6.8125 8.1171875 L 4.203125 8.1171875 L 4.203125 11.095703 L 3.5917969 11.095703 L 3.5917969 4.859375 z M 8.2304688 6.4433594 L 8.8164062 6.4433594 L 8.8164062 11.095703 L 8.2304688 11.095703 L 8.2304688 6.4433594 z M 10.443359 8.8417969 L 12.269531 8.8417969 L 12.269531 9.1757812 L 10.777344 9.1757812 C 10.77341 9.2498812 10.767532 9.3458906 10.759766 9.4628906 C 10.751966 9.5798906 10.744128 9.6994188 10.736328 9.8242188 C 10.728528 9.9451188 10.718731 10.062681 10.707031 10.175781 C 10.695331 10.288881 10.685534 10.379012 10.677734 10.445312 C 10.978034 10.453112 11.236678 10.490341 11.455078 10.556641 C 11.673478 10.622941 11.853741 10.711119 11.994141 10.824219 C 12.134541 10.937319 12.238387 11.074475 12.304688 11.234375 C 12.374887 11.394275 12.408203 11.572578 12.408203 11.767578 C 12.408203 11.939178 12.380766 12.097894 12.322266 12.246094 C 12.267666 12.394294 12.181453 12.523613 12.064453 12.632812 C 11.947453 12.742012 11.798541 12.828225 11.619141 12.890625 C 11.439741 12.953025 11.228122 12.984375 10.982422 12.984375 C 10.857622 12.984375 10.740059 12.974578 10.630859 12.955078 C 10.525559 12.939478 10.42955 12.919884 10.34375 12.896484 C 10.26185 12.873084 10.191313 12.849572 10.132812 12.826172 C 10.074313 12.802772 10.031206 12.783178 10.003906 12.767578 L 10.103516 12.427734 C 10.126916 12.443334 10.166103 12.462928 10.220703 12.486328 C 10.279203 12.509728 10.345822 12.533241 10.419922 12.556641 C 10.497922 12.576141 10.584134 12.593775 10.677734 12.609375 C 10.775234 12.624975 10.877122 12.632812 10.982422 12.632812 C 11.177422 12.632812 11.338097 12.611259 11.466797 12.568359 C 11.599397 12.521559 11.705203 12.458859 11.783203 12.380859 C 11.861203 12.302859 11.916066 12.212728 11.947266 12.111328 C 11.982366 12.006028 12 11.894337 12 11.773438 C 12 11.617437 11.974528 11.476362 11.923828 11.351562 C 11.873128 11.226762 11.782997 11.120956 11.654297 11.035156 C 11.525597 10.949356 11.353166 10.884697 11.134766 10.841797 C 10.916366 10.794997 10.638134 10.771484 10.302734 10.771484 C 10.326134 10.572584 10.345728 10.392316 10.361328 10.228516 C 10.376928 10.060816 10.390644 9.9001469 10.402344 9.7480469 C 10.414044 9.5920469 10.421881 9.4431281 10.425781 9.2988281 C 10.433581 9.1506281 10.439459 8.9977969 10.443359 8.8417969 z "
     id="path4" />
</svg>

<svg xmlns="http://www.w3.org/2000/svg" viewBox="0 0 16 16">
 <path d="m 1.6 0 c -0.886 0 -1.6 0.713 -1.6 1.6 l 0 12.801 c 0 0.886 0.713 1.6 1.6 1.6 l 12.801 0 c 0.886 0 1.6 -0.713 1.6 -1.6 l 0 -12.801 c 0 -0.886 -0.713 -1.6 -1.6 -1.6 l -12.801 0 z m 6.92 4.59 c 0.12 0 0.221 0.041 0.305 0.125 c 0.084 0.078 0.127 0.186 0.127 0.324 c 0 0.138 -0.043 0.248 -0.127 0.332 c -0.084 0.078 -0.185 0.117 -0.305 0.117 c -0.12 0 -0.223 -0.039 -0.307 -0.117 c -0.084 -0.084 -0.127 -0.194 -0.127 -0.332 c 0 -0.138 0.043 -0.246 0.127 -0.324 c 0.084 -0.084 0.187 -0.125 0.307 -0.125 z m -4.928 0.27 l 3.555 0 l 0 0.531 l -2.943 0 l 0 2.195 l 2.609 0 l 0 0.531 l -2.609 0 l 0 2.979 l -0.611 0 l 0 -6.236 z m 4.639 1.584 l 0.586 0 l 0 4.652 l -0.586 0 l 0 -4.652 z m 2.213 2.398 l 1.826 0 l 0 0.334 l -1.492 0 c -0.004 0.074 -0.01 0.17 -0.018 0.287 c -0.008 0.117 -0.016 0.237 -0.023 0.361 c -0.008 0.121 -0.018 0.238 -0.029 0.352 c -0.012 0.113 -0.021 0.203 -0.029 0.27 c 0.3 0.008 0.559 0.045 0.777 0.111 c 0.218 0.066 0.399 0.154 0.539 0.268 c 0.14 0.113 0.244 0.25 0.311 0.41 c 0.07 0.16 0.104 0.338 0.104 0.533 c 0 0.172 -0.027 0.33 -0.086 0.479 c -0.055 0.148 -0.141 0.278 -0.258 0.387 c -0.117 0.109 -0.266 0.195 -0.445 0.258 c -0.179 0.062 -0.391 0.094 -0.637 0.094 c -0.125 0 -0.242 -0.01 -0.352 -0.029 c -0.105 -0.016 -0.201 -0.035 -0.287 -0.059 c -0.082 -0.023 -0.152 -0.047 -0.211 -0.07 c -0.058 -0.023 -0.102 -0.043 -0.129 -0.059 l 0.1 -0.34 c 0.023 0.016 0.063 0.035 0.117 0.059 c 0.059 0.023 0.125 0.047 0.199 0.07 c 0.078 0.019 0.164 0.037 0.258 0.053 c 0.098 0.016 0.199 0.023 0.305 0.023 c 0.195 0 0.356 -0.022 0.484 -0.064 c 0.133 -0.047 0.238 -0.109 0.316 -0.188 c 0.078 -0.078 0.133 -0.168 0.164 -0.27 c 0.035 -0.105 0.053 -0.217 0.053 -0.338 c 0 -0.156 -0.025 -0.297 -0.076 -0.422 c -0.051 -0.125 -0.141 -0.231 -0.27 -0.316 c -0.129 -0.086 -0.301 -0.15 -0.52 -0.193 c -0.218 -0.047 -0.497 -0.07 -0.832 -0.07 c 0.023 -0.199 0.043 -0.379 0.059 -0.543 c 0.016 -0.168 0.029 -0.328 0.041 -0.48 c 0.012 -0.156 0.02 -0.305 0.023 -0.449 c 0.008 -0.148 0.014 -0.301 0.018 -0.457 z" style="fill:#ececec;fill-opacity:1"/>
</svg>
